Papirus-nordic/64x64/places/folder-nordic-linux.svg

<svg xmlns="http://www.w3.org/2000/svg" width="64" height="64"><rect width="50" height="32" x="7" y="24" rx="2.5" ry="2.5" opacity=".2"/><path d="M7 44.5C7 45.885 8.115 47 9.5 47h45c1.385 0 2.5-1.115 2.5-2.5v-27c0-1.385-1.115-2.5-2.5-2.5H29v-2.5c0-1.385-1.115-2.5-2.5-2.5h-17A2.495 2.495 0 0 0 7 12.5" fill="#6c9b9a"/><rect width="50" height="32" x="7" y="22" rx="2.5" ry="2.5" opacity=".2"/><rect width="44" height="20" x="10" y="18" rx="2.5" ry="2.5" fill="#e4e4e4"/><rect width="50" height="32" x="7" y="23" rx="2.5" ry="2.5" fill="#82abaa"/><path d="M9.5 10A2.495 2.495 0 0 0 7 12.5v1C7 12.115 8.115 11 9.5 11h17c1.385 0 2.5 1.115 2.5 2.5v-1c0-1.385-1.115-2.5-2.5-2.5zM29 15v1h25.5c1.39 0 2.5 1.115 2.5 2.5v-1c0-1.385-1.11-2.5-2.5-2.5z" opacity=".1" fill="#fff"/><path d="M32.787 43.393c-1.601.744-3.089.736-4.089.664-1.192-.086-2.152-.412-2.573-.698a.568.568 0 1 0-.637.941c.678.459 1.876.8 3.128.89.212.016.445.025.696.025 1.09 0 2.474-.104 3.954-.792a.568.568 0 0 0-.479-1.03zm6.314-.842c.054-4.936.562-14.262-8.886-13.508-9.328.751-6.855 10.605-6.994 13.905-.123 1.746-.702 3.88-1.521 6.052h2.521c.26-.92.45-1.831.532-2.698.152.106.315.208.489.306.282.167.525.388.782.622.6.547 1.281 1.168 2.611 1.245.089.005.179.008.267.008 1.346 0 2.266-.589 3.006-1.062.354-.227.66-.423.948-.517.819-.256 1.534-.67 2.068-1.196a3.67 3.67 0 0 0 .234-.253A44.21 44.21 0 0 0 36.316 49H41.7c-1.294-1.996-2.627-3.953-2.599-6.449zm-14.977-2.685v-.001c-.093-1.611.678-2.965 1.721-3.026 1.043-.061 1.964 1.196 2.057 2.806v.001c.005.087.007.173.007.258-.33.083-.629.204-.896.345l-.003-.036v-.001c-.089-.914-.577-1.604-1.091-1.542-.513.063-.857.855-.767 1.769.039.399.153.755.313 1.025-.04.031-.152.113-.281.208l-.358.262c-.388-.51-.654-1.242-.702-2.068zm10.569 3.981c-.037.851-1.151 1.652-2.179 1.973l-.006.002c-.428.139-.809.383-1.213.641-.678.434-1.38.883-2.393.883-.067 0-.135-.002-.202-.006-.928-.054-1.362-.449-1.911-.95-.29-.264-.59-.538-.976-.764l-.009-.005c-.834-.471-1.352-1.056-1.385-1.567-.016-.253.097-.473.336-.652.52-.39.869-.645 1.099-.814.256-.187.334-.243.391-.298a6.95 6.95 0 0 0 .133-.128c.477-.464 1.276-1.241 2.503-1.241.75 0 1.58.289 2.464.857.416.271.779.396 1.238.555.315.109.673.232 1.152.437l.008.004c.446.183.974.518.95 1.072zm-.246-2a4.454 4.454 0 0 0-.269-.123c-.432-.184-.778-.31-1.065-.41.159-.31.257-.697.266-1.118.022-1.023-.494-1.854-1.152-1.855-.659-.002-1.21.826-1.232 1.849a1.667 1.667 0 0 0 0 .1 5.755 5.755 0 0 0-1.195-.405l-.005-.116v-.001c-.038-1.863 1.106-3.406 2.554-3.445 1.448-.039 2.653 1.439 2.691 3.303v.001c.017.843-.208 1.618-.593 2.22z" fill="#4e6766"/></svg>

<svg xmlns="http://www.w3.org/2000/svg" width="64" height="64" version="1.1">
 <rect style="opacity:0.2" width="50" height="32" x="7" y="24" rx="2.5" ry="2.5"/>
 <path style="fill:#6c9b9a" d="M 7,44.5 C 7,45.885 8.115,47 9.5,47 H 54.5 C 55.885,47 57,45.885 57,44.5 V 17.5 C 57,16.115 55.885,15 54.5,15 H 29 V 12.5 C 29,11.115 27.885,10 26.5,10 H 9.5 C 8.115,10 7,11.115 7,12.5"/>
 <rect style="opacity:0.2" width="50" height="32" x="7" y="22" rx="2.5" ry="2.5"/>
 <rect style="fill:#e4e4e4" width="44" height="20" x="10" y="18" rx="2.5" ry="2.5"/>
 <rect style="fill:#82abaa" width="50" height="32" x="7" y="23" rx="2.5" ry="2.5"/>
 <path style="opacity:0.1;fill:#ffffff" d="M 9.5,10 C 8.115,10 7,11.115 7,12.5 V 13.5 C 7,12.115 8.115,11 9.5,11 H 26.5 C 27.885,11 29,12.115 29,13.5 V 12.5 C 29,11.115 27.885,10 26.5,10 Z M 29,15 V 16 H 54.5 C 55.89,16 57,17.115 57,18.5 V 17.5 C 57,16.115 55.89,15 54.5,15 Z"/>
 <path style="fill:#4e6766" d="M 32.787,43.393 C 31.186,44.137 29.698,44.129 28.698,44.057 27.506,43.971 26.546,43.645 26.125,43.359 25.865,43.183 25.512,43.251 25.336,43.511 25.16,43.771 25.228,44.124 25.488,44.3 26.166,44.759 27.364,45.1 28.616,45.19 28.828,45.206 29.061,45.215 29.312,45.215 30.402,45.215 31.786,45.111 33.266,44.423 33.55,44.29 33.674,43.953 33.541,43.668 33.409,43.384 33.071,43.26 32.787,43.393 Z M 39.101,42.551 C 39.155,37.615 39.663,28.289 30.215,29.043 20.887,29.794 23.36,39.648 23.221,42.948 23.098,44.694 22.519,46.828 21.7,49 H 24.221 C 24.481,48.08 24.671,47.169 24.753,46.302 24.905,46.408 25.068,46.51 25.242,46.608 25.524,46.775 25.767,46.996 26.024,47.23 26.624,47.777 27.305,48.398 28.635,48.475 28.724,48.48 28.814,48.483 28.902,48.483 30.248,48.483 31.168,47.894 31.908,47.421 32.262,47.194 32.568,46.998 32.856,46.904 33.675,46.648 34.39,46.234 34.924,45.708 35.008,45.626 35.085,45.541 35.158,45.455 35.456,46.546 35.864,47.775 36.316,49 H 41.7 C 40.406,47.004 39.073,45.047 39.101,42.551 Z M 24.124,39.866 C 24.124,39.866 24.124,39.865 24.124,39.865 24.031,38.254 24.802,36.9 25.845,36.839 26.888,36.778 27.809,38.035 27.902,39.645 27.902,39.646 27.902,39.646 27.902,39.646 27.907,39.733 27.909,39.819 27.909,39.904 27.579,39.987 27.28,40.108 27.013,40.249 27.012,40.237 27.011,40.225 27.01,40.213 V 40.212 C 26.921,39.298 26.433,38.608 25.919,38.67 25.406,38.733 25.062,39.525 25.152,40.439 25.152,40.439 25.152,40.439 25.152,40.439 25.191,40.838 25.305,41.194 25.465,41.464 25.425,41.495 25.313,41.577 25.184,41.672 25.087,41.743 24.968,41.829 24.826,41.934 24.438,41.424 24.172,40.692 24.124,39.866 Z M 34.693,43.847 C 34.656,44.698 33.542,45.499 32.514,45.82 L 32.508,45.822 C 32.08,45.961 31.699,46.205 31.295,46.463 30.617,46.897 29.915,47.346 28.902,47.346 28.835,47.346 28.767,47.344 28.7,47.34 27.772,47.286 27.338,46.891 26.789,46.39 26.499,46.126 26.199,45.852 25.813,45.626 L 25.804,45.621 C 24.97,45.15 24.452,44.565 24.419,44.054 24.403,43.801 24.516,43.581 24.755,43.402 25.275,43.012 25.624,42.757 25.854,42.588 26.11,42.401 26.188,42.345 26.245,42.29 26.286,42.252 26.33,42.209 26.378,42.162 26.855,41.698 27.654,40.921 28.881,40.921 29.631,40.921 30.461,41.21 31.345,41.778 31.761,42.049 32.124,42.174 32.583,42.333 32.898,42.442 33.256,42.565 33.735,42.77 L 33.743,42.774 C 34.189,42.957 34.717,43.292 34.693,43.846 Z M 34.447,41.847 C 34.361,41.804 34.271,41.763 34.178,41.724 33.746,41.54 33.4,41.414 33.113,41.314 33.272,41.004 33.37,40.617 33.379,40.196 V 40.196 C 33.401,39.173 32.885,38.342 32.227,38.341 31.568,38.339 31.017,39.167 30.995,40.19 V 40.19 C 30.994,40.224 30.994,40.257 30.995,40.29 30.589,40.104 30.19,39.968 29.8,39.885 29.798,39.846 29.796,39.808 29.795,39.769 V 39.768 C 29.757,37.905 30.901,36.362 32.349,36.323 33.797,36.284 35.002,37.762 35.04,39.626 V 39.627 C 35.057,40.47 34.832,41.245 34.447,41.847 Z"/>
</svg>
